Printex-remake/img/icons/catalog_small/10.svg

<svg width="87" height="87" viewBox="0 0 87 87" fill="none" xmlns="http://www.w3.org/2000/svg">
<g clip-path="url(#clip0)">
<path d="M21.0254 84.1863L55.878 64.0656L68.3342 66.0748L33.4816 86.1954L21.0254 84.1863Z" fill="#D7C7ED"/>
<path d="M24.9629 26.2714L59.6193 6.26099L59.6175 63.2097L30.3235 80.1238L29.2268 79.7932C26.9597 79.1099 25.4351 77.0755 24.9629 74.1039L24.9629 26.2714Z" fill="#E5D4FC"/>
<path d="M26.7256 74.104L63.2168 53.5455L66.3006 58.6852L64.5847 60.2995L30.1426 80.1861L29.6187 75.9732L26.7256 74.104Z" fill="#E5D4FC"/>
<path d="M22.6143 75.349C22.6143 77.3796 24.2251 79.8489 26.2121 80.8643C28.1991 81.8796 29.8098 81.0566 29.8097 79.026C29.8096 76.9954 28.1988 74.5261 26.2119 73.5107" stroke="black" stroke-linejoin="bevel"/>
<path d="M62.1885 53.5453C64.1754 54.5607 65.7861 56.4369 65.7862 58.4675C65.7862 59.2406 65.5528 59.8386 65.1541 60.2268C64.7694 60.6013 63.2164 61.7687 63.2164 61.7687" stroke="black" stroke-linejoin="bevel"/>
<path d="M59.621 55.0873V6.26086L22.6152 27.6278L22.6152 75.6457" stroke="black" stroke-linejoin="bevel"/>
<path d="M24.6699 23.2228L24.6699 15.0918" stroke="black" stroke-linejoin="bevel"/>
<path d="M54.4795 -7.10181L54.4795 5.74823" stroke="black" stroke-linejoin="bevel"/>
<path d="M26.7256 73.8841L62.7029 53.5453" stroke="black" stroke-linejoin="bevel"/>
<path d="M28.7812 81.0796L64.7585 60.7407" stroke="black" stroke-linejoin="bevel"/>
<path d="M22.614 29.1574L19.5303 30.938L19.5304 25.6883L62.0787 1.12122L62.0785 6.3709L59.5986 7.80278" stroke="black" stroke-linejoin="bevel"/>
<path d="M30.7915 35.0919L52.7496 22.4135L52.7491 37.4683L30.791 50.1467L30.7915 35.0919Z" fill="white" stroke="black" stroke-linejoin="bevel"/>
<path d="M52.7491 45.4951L30.791 58.1736" stroke="black" stroke-linejoin="bevel"/>
<path d="M30.791 62.6123L32.2497 61.2983C33.0733 60.5563 33.9548 60.1688 34.701 60.2207L34.9082 60.2351C35.7608 60.2943 36.8003 59.6941 37.6529 58.6503C38.5055 57.6065 39.5451 57.0062 40.3977 57.0655C41.2502 57.1247 42.2899 56.5245 43.1424 55.4807C43.995 54.4369 45.0346 53.8366 45.8872 53.8959C46.7398 53.9551 47.7794 53.3548 48.632 52.311L48.8391 52.0574C49.5853 51.1439 50.4668 50.5134 51.2904 50.3043L52.7491 49.9338" stroke="black" stroke-linejoin="bevel"/>
</g>
<defs>
<clipPath id="clip0">
<rect width="87" height="87" fill="white"/>
</clipPath>
</defs>
</svg>

<svg width="87" height="87" fill="none" xmlns="http://www.w3.org/2000/svg"><g clip-path="url(#clip0)"><path d="M21.025 84.186l34.853-20.12 12.456 2.009-34.852 20.12-12.457-2.009z" fill="#D7C7ED"/><path d="M24.963 26.271l34.656-20.01-.002 56.949-29.293 16.914-1.097-.33c-2.267-.684-3.792-2.718-4.264-5.69V26.27z" fill="#E5D4FC"/><path d="M26.726 74.104l36.49-20.559 3.085 5.14-1.716 1.614-34.442 19.887-.524-4.213-2.893-1.869z" fill="#E5D4FC"/><path d="M22.614 75.349c0 2.03 1.611 4.5 3.598 5.515 1.987 1.016 3.598.193 3.598-1.838 0-2.03-1.611-4.5-3.598-5.515m35.976-19.966c1.987 1.016 3.598 2.892 3.598 4.922 0 .774-.233 1.372-.632 1.76-.385.374-1.938 1.542-1.938 1.542" stroke="#000" stroke-linejoin="bevel"/><path d="M59.621 55.087V6.261L22.615 27.628v48.018m2.055-52.423v-8.131M54.48-7.102v12.85M26.726 73.884l35.977-20.339M28.781 81.08l35.977-20.34" stroke="#000" stroke-linejoin="bevel"/><path d="M22.614 29.157l-3.084 1.781v-5.25L62.08 1.121v5.25L59.6 7.803" stroke="#000" stroke-linejoin="bevel"/><path d="M30.791 35.092L52.75 22.414v15.054L30.79 50.147V35.092z" fill="#fff" stroke="#000" stroke-linejoin="bevel"/><path d="M52.75 45.495L30.79 58.174m.001 4.438l1.459-1.314c.823-.742 1.705-1.13 2.451-1.077l.207.014c.853.06 1.892-.54 2.745-1.585.852-1.044 1.892-1.644 2.745-1.584.852.059 1.892-.541 2.744-1.585.853-1.044 1.893-1.644 2.745-1.585.853.06 1.892-.541 2.745-1.585l.207-.254c.746-.913 1.628-1.544 2.451-1.753l1.46-.37" stroke="#000" stroke-linejoin="bevel"/></g><defs><clipPath id="clip0"><path fill="#fff" d="M0 0h87v87H0z"/></clipPath></defs></svg>
